docs/img/none.svg

<svg width="294" height="283" viewBox="0 0 294 283" fill="none" xmlns="http://www.w3.org/2000/svg">
<g clip-path="url(#clip0)">
<path d="M238.335 279.527V99.0396H194.875V55.3912H86.2188V265.619" stroke="#0B2867" stroke-width="7" stroke-miterlimit="10" stroke-linecap="round" stroke-linejoin="round"/>
<path d="M86.2188 265.619L103.112 279.527L120.006 265.619L136.899 279.527L153.793 265.619L170.686 279.527L187.579 265.619L204.488 279.527L221.411 265.619L238.335 279.527" stroke="#0B2867" stroke-width="7" stroke-miterlimit="10" stroke-linecap="round" stroke-linejoin="round"/>
<path d="M194.875 99.0395H238.335L194.875 55.6017V99.0395Z" fill="#84AACB"/>
<path d="M194.875 99.0395H238.335L194.875 55.6017V99.0395Z" stroke="#0B2867" stroke-width="7" stroke-miterlimit="10" stroke-linecap="round" stroke-linejoin="round"/>
<path d="M253.378 40.5511L268.436 25.5155" stroke="#0B2867" stroke-width="7" stroke-miterlimit="10" stroke-linecap="round" stroke-linejoin="round"/>
<path d="M253.378 40.551L260.915 33.0332" stroke="#0B2867" stroke-width="7" stroke-miterlimit="10" stroke-linecap="round" stroke-linejoin="round"/>
<path d="M224.751 24.0269L227.504 13.7576" stroke="#84AACB" stroke-width="7" stroke-miterlimit="10" stroke-linecap="round" stroke-linejoin="round"/>
<path d="M191.686 24.0269L186.181 3.47327" stroke="#0B2867" stroke-width="7" stroke-miterlimit="10" stroke-linecap="round" stroke-linejoin="round"/>
<path d="M191.686 24.0269L188.934 13.7576" stroke="#0B2867" stroke-width="7" stroke-miterlimit="10" stroke-linecap="round" stroke-linejoin="round"/>
<path d="M269.91 102.212L290.474 107.73" stroke="#0B2867" stroke-width="7" stroke-miterlimit="10" stroke-linecap="round" stroke-linejoin="round"/>
<path d="M269.91 102.212L280.2 104.979" stroke="#0B2867" stroke-width="7" stroke-miterlimit="10" stroke-linecap="round" stroke-linejoin="round"/>
<path d="M269.91 69.1788L280.2 66.4272" stroke="#84AACB" stroke-width="7" stroke-miterlimit="10" stroke-linecap="round" stroke-linejoin="round"/>
<path d="M86.4593 12.1638C122.473 12.1638 151.656 41.3329 151.656 77.3131C151.656 113.308 122.473 142.477 86.4593 142.477C50.461 142.477 21.2773 113.308 21.2773 77.3131C21.2773 41.3329 50.461 12.1638 86.4593 12.1638Z" fill="white"/>
<path d="M86.4593 12.1638C122.473 12.1638 151.656 41.3329 151.656 77.3131C151.656 113.308 122.473 142.477 86.4593 142.477C50.461 142.477 21.2773 113.308 21.2773 77.3131C21.2773 41.3329 50.461 12.1638 86.4593 12.1638Z" stroke="#84AACB" stroke-width="7" stroke-miterlimit="10" stroke-linecap="round" stroke-linejoin="round"/>
<path d="M34.9816 117.263L5.91823 146.311C2.72908 149.499 2.72908 154.656 5.91823 157.829C9.09233 161.016 14.2521 161.016 17.4413 157.829L46.5046 128.78C44.3835 127.126 42.3226 125.352 40.367 123.397C38.4265 121.443 36.6363 119.383 34.9816 117.263Z" stroke="#84AACB" stroke-width="7" stroke-miterlimit="10" stroke-linecap="round" stroke-linejoin="round"/>
<path d="M42.293 59.0298C46.9864 47.738 55.9822 38.2205 68.1672 33.1836" stroke="#84AACB" stroke-width="7" stroke-miterlimit="10" stroke-linecap="round" stroke-linejoin="round"/>
<path d="M86.2188 125.081V55.3912H128.911" stroke="#0B2867" stroke-width="7" stroke-miterlimit="10" stroke-linecap="round" stroke-linejoin="round"/>
<path d="M34.9812 117.263L26.3916 125.848L37.9146 137.365L46.5043 128.78C44.3832 127.126 42.3223 125.352 40.3667 123.397C38.4261 121.443 36.636 119.383 34.9812 117.263Z" stroke="#84AACB" stroke-width="7" stroke-miterlimit="10" stroke-linecap="round" stroke-linejoin="round"/>
<path d="M124.346 197.221H131.406V176.625L124.346 197.221ZM131.406 216V204.135H117.139V196.459L129.473 167.396H139.258V197.221H144.297V204.135H139.258V216H131.406ZM170.283 212.807C168.115 215.385 164.99 216.674 160.908 216.674C156.826 216.674 153.701 215.385 151.533 212.807C149.365 210.229 148.281 206.791 148.281 202.494V181.137C148.281 176.703 149.326 173.217 151.416 170.678C153.525 168.119 156.689 166.84 160.908 166.84C165.088 166.84 168.232 168.119 170.342 170.678C172.471 173.236 173.535 176.723 173.535 181.137V202.494C173.535 206.791 172.451 210.229 170.283 212.807ZM156.689 202.377C156.689 207.143 158.096 209.525 160.908 209.525C163.721 209.525 165.127 207.143 165.127 202.377V181.283C165.127 180.658 165.107 180.092 165.068 179.584C165.029 179.057 164.961 178.5 164.863 177.914C164.785 177.328 164.639 176.82 164.424 176.391C164.229 175.941 163.984 175.531 163.691 175.16C163.398 174.77 163.008 174.477 162.52 174.281C162.051 174.086 161.514 173.988 160.908 173.988C160.186 173.988 159.551 174.145 159.004 174.457C158.477 174.75 158.066 175.121 157.773 175.57C157.48 176.02 157.246 176.596 157.07 177.299C156.914 177.982 156.807 178.627 156.748 179.232C156.709 179.818 156.689 180.502 156.689 181.283V202.377ZM185.518 197.221H192.578V176.625L185.518 197.221ZM192.578 216V204.135H178.311V196.459L190.645 167.396H200.43V197.221H205.469V204.135H200.43V216H192.578Z" fill="#0B2867"/>
</g>
<defs>
<clipPath id="clip0">
<rect width="294" height="283" fill="white"/>
</clipPath>
</defs>
</svg>

<svg width="294" height="283" viewBox="0 0 294 283" fill="none" xmlns="http://www.w3.org/2000/svg"><g clip-path="url(#clip0)"><path d="M238.335 279.527V99.04h-43.46V55.39H86.219v210.23" stroke="#0B2867" stroke-width="7" stroke-miterlimit="10" stroke-linecap="round" stroke-linejoin="round"/><path d="M86.219 265.619l16.893 13.908 16.894-13.908 16.893 13.908 16.894-13.908 16.893 13.908 16.893-13.908 16.909 13.908 16.923-13.908 16.924 13.908" stroke="#0B2867" stroke-width="7" stroke-miterlimit="10" stroke-linecap="round" stroke-linejoin="round"/><path d="M194.875 99.04h43.46l-43.46-43.438V99.04z" fill="#84AACB"/><path d="M194.875 99.04h43.46l-43.46-43.438V99.04zm58.503-58.489l15.058-15.036m-15.058 15.036l7.537-7.518" stroke="#0B2867" stroke-width="7" stroke-miterlimit="10" stroke-linecap="round" stroke-linejoin="round"/><path d="M224.751 24.027l2.753-10.27" stroke="#84AACB" stroke-width="7" stroke-miterlimit="10" stroke-linecap="round" stroke-linejoin="round"/><path d="M191.686 24.027l-5.505-20.554m5.505 20.554l-2.752-10.27m80.976 88.455l20.564 5.518m-20.564-5.518l10.29 2.767" stroke="#0B2867" stroke-width="7" stroke-miterlimit="10" stroke-linecap="round" stroke-linejoin="round"/><path d="M269.91 69.179l10.29-2.752" stroke="#84AACB" stroke-width="7" stroke-miterlimit="10" stroke-linecap="round" stroke-linejoin="round"/><path d="M86.46 12.164c36.013 0 65.196 29.169 65.196 65.15 0 35.994-29.183 65.163-65.197 65.163-35.998 0-65.182-29.169-65.182-65.164 0-35.98 29.184-65.15 65.182-65.15z" fill="#fff"/><path d="M86.46 12.164c36.013 0 65.196 29.169 65.196 65.15 0 35.994-29.183 65.163-65.197 65.163-35.998 0-65.182-29.169-65.182-65.164 0-35.98 29.184-65.15 65.182-65.15z" stroke="#84AACB" stroke-width="7" stroke-miterlimit="10" stroke-linecap="round" stroke-linejoin="round"/><path d="M34.982 117.263L5.918 146.311c-3.189 3.188-3.189 8.345 0 11.518 3.174 3.187 8.334 3.187 11.523 0l29.064-29.049c-2.122-1.654-4.182-3.428-6.138-5.383a68.545 68.545 0 01-5.385-6.134zm7.311-58.233c4.693-11.292 13.69-20.81 25.874-25.846" stroke="#84AACB" stroke-width="7" stroke-miterlimit="10" stroke-linecap="round" stroke-linejoin="round"/><path d="M86.219 125.081v-69.69h42.692" stroke="#0B2867" stroke-width="7" stroke-miterlimit="10" stroke-linecap="round" stroke-linejoin="round"/><path d="M34.981 117.263l-8.59 8.585 11.524 11.517 8.59-8.585c-2.122-1.654-4.183-3.428-6.138-5.383a68.546 68.546 0 01-5.386-6.134z" stroke="#84AACB" stroke-width="7" stroke-miterlimit="10" stroke-linecap="round" stroke-linejoin="round"/><path d="M124.346 197.221h7.06v-20.596l-7.06 20.596zm7.06 18.779v-11.865h-14.267v-7.676l12.334-29.063h9.785v29.825h5.039v6.914h-5.039V216h-7.852zm38.877-3.193c-2.168 2.578-5.293 3.867-9.375 3.867s-7.207-1.289-9.375-3.867c-2.168-2.578-3.252-6.016-3.252-10.313v-21.357c0-4.434 1.045-7.92 3.135-10.459 2.109-2.559 5.273-3.838 9.492-3.838 4.18 0 7.324 1.279 9.434 3.838 2.129 2.558 3.193 6.045 3.193 10.459v21.357c0 4.297-1.084 7.735-3.252 10.313zm-13.594-10.43c0 4.766 1.407 7.148 4.219 7.148 2.813 0 4.219-2.382 4.219-7.148v-21.094c0-.625-.02-1.191-.059-1.699a18.363 18.363 0 00-.205-1.67c-.078-.586-.224-1.094-.439-1.523-.195-.45-.44-.86-.733-1.231a2.675 2.675 0 00-1.171-.879c-.469-.195-1.006-.293-1.612-.293-.722 0-1.357.157-1.904.469-.527.293-.938.664-1.231 1.113-.293.45-.527 1.026-.703 1.729a15.444 15.444 0 00-.322 1.933c-.039.586-.059 1.27-.059 2.051v21.094zm28.829-5.156h7.06v-20.596l-7.06 20.596zm7.06 18.779v-11.865h-14.267v-7.676l12.334-29.063h9.785v29.825h5.039v6.914h-5.039V216h-7.852z" fill="#0B2867"/></g><defs><clipPath id="clip0"><path fill="#fff" d="M0 0h294v283H0z"/></clipPath></defs></svg>
